src/images/item1.svg

<svg viewBox="0 0 512 512" xmlns="http://www.w3.org/2000/svg" fill-rule="evenodd" clip-rule="evenodd" stroke-linejoin="round" stroke-miterlimit="2"><path d="M504.485 103.209A7.514 7.514 0 00512 95.694V71.648c0-21.823-17.755-39.577-39.577-39.577H191.875c-21.823 0-39.577 17.755-39.577 39.577v34.975C65.904 119.928 0 186.864 0 267.196c0 26.235 7.197 52.308 20.812 75.401 12.104 20.53 29.287 38.784 49.924 53.091l-30.103 73.908c-1.108 2.722-.494 5.928 1.544 8.045 2.335 2.425 6.112 2.996 9.059 1.364l94.454-52.342a208 208 0 0038.17 3.521c66.379 0 124.65-31.346 156.978-78.216l111.221 78.508c2.844 2.007 6.8 1.764 9.379-.572 2.187-1.981 3.016-5.144 2.083-7.944l-23.423-70.265h32.324c21.823 0 39.577-17.755 39.577-39.577V132.099a7.514 7.514 0 00-7.515-7.515 7.514 7.514 0 00-7.515 7.515v180.019c0 13.536-11.011 24.548-24.548 24.548h-42.75c-5.04 0-8.726 5.102-7.129 9.891l19.48 58.439-93.241-65.817c12.114-21.721 18.936-46.158 18.936-71.984 0-89.87-82.478-162.984-183.859-162.984-5.573 0-11.085.233-16.532.666v-33.23c0-13.536 11.012-24.548 24.548-24.548h280.548c13.536 0 24.548 11.012 24.548 24.548v24.047a7.515 7.515 0 007.515 7.515zM183.859 415.152c-12.794 0-25.558-1.264-37.937-3.756a7.508 7.508 0 00-5.126.794l-78.204 43.338 24.376-59.846a7.515 7.515 0 00-2.894-9.154c-43.233-27.822-69.045-72.432-69.045-119.332 0-72.131 59.209-132.362 137.268-145.351v190.273c0 21.823 17.755 39.577 39.577 39.577h130.491c-30.539 38.329-81.233 63.457-138.506 63.457zm0-295.911c93.093 0 168.83 66.373 168.83 147.955 0 25.093-7.174 48.743-19.806 69.47H191.875c-13.536 0-24.548-11.011-24.548-24.548V119.951a193.66 193.66 0 0116.532-.71z" fill-rule="nonzero"/><path d="M309.927 200.247c-11.662-10.861-32.742-12.327-55.076 7.145-22.334-19.473-43.415-18.008-55.075-7.145-11.74 10.936-14.4 32.452 3.231 52.414 16.952 19.194 45.536 45.64 46.744 46.756 2.841 2.626 7.356 2.625 10.198 0 1.208-1.116 29.792-27.562 46.745-46.756 17.633-19.962 14.972-41.477 3.233-52.414zm-14.495 42.465c-12.265 13.886-31.484 32.312-40.58 40.893-9.096-8.58-28.309-27-40.579-40.893-11.27-12.76-10.67-25.489-4.251-31.467 2.626-2.446 6.268-3.876 10.661-3.876 7.75 0 17.838 4.45 28.808 15.619 2.903 2.956 7.819 2.956 10.722 0 17.19-17.498 32.21-18.505 39.47-11.743 6.417 5.979 7.018 18.707-4.251 31.467z" fill-rule="nonzero"/></svg>

<svg width="100%" height="100%" viewBox="0 0 512 512" version="1.1" xmlns="http://www.w3.org/2000/svg" xmlns:xlink="http://www.w3.org/1999/xlink" xml:space="preserve" xmlns:serif="http://www.serif.com/" style="fill-rule:evenodd;clip-rule:evenodd;stroke-linejoin:round;stroke-miterlimit:2;">
    <path d="M504.485,103.209C508.636,103.209 512,99.845 512,95.694L512,71.648C512,49.825 494.245,32.071 472.423,32.071L191.875,32.071C170.052,32.071 152.298,49.826 152.298,71.648L152.298,106.623C65.904,119.928 0,186.864 0,267.196C0,293.431 7.197,319.504 20.812,342.597C32.916,363.127 50.099,381.381 70.736,395.688L40.633,469.596C39.525,472.318 40.139,475.524 42.177,477.641C44.512,480.066 48.289,480.637 51.236,479.005L145.69,426.663C158.185,429 171.01,430.184 183.86,430.184C250.239,430.184 308.51,398.838 340.838,351.968L452.059,430.476C454.903,432.483 458.859,432.24 461.438,429.904C463.625,427.923 464.454,424.76 463.521,421.96L440.098,351.695L472.422,351.695C494.245,351.695 511.999,333.94 511.999,312.118L511.999,132.099C511.999,127.948 508.635,124.584 504.484,124.584C500.333,124.584 496.969,127.948 496.969,132.099L496.969,312.118C496.969,325.654 485.958,336.666 472.421,336.666L429.671,336.666C424.631,336.666 420.945,341.768 422.542,346.557L442.022,404.996L348.781,339.179C360.895,317.458 367.717,293.021 367.717,267.195C367.717,177.325 285.239,104.211 183.858,104.211C178.285,104.211 172.773,104.444 167.326,104.877L167.326,71.647C167.326,58.111 178.338,47.099 191.874,47.099L472.422,47.099C485.958,47.099 496.97,58.111 496.97,71.647L496.97,95.694C496.971,99.845 500.334,103.209 504.485,103.209ZM183.859,415.152C171.065,415.152 158.301,413.888 145.922,411.396C144.174,411.043 142.356,411.325 140.796,412.19L62.592,455.528L86.968,395.682C88.332,392.331 87.116,388.485 84.074,386.528C40.841,358.706 15.029,314.096 15.029,267.196C15.029,195.065 74.238,134.834 152.297,121.845L152.297,312.118C152.297,333.941 170.052,351.695 191.874,351.695L322.365,351.695C291.826,390.024 241.132,415.152 183.859,415.152ZM183.859,119.241C276.952,119.241 352.689,185.614 352.689,267.196C352.689,292.289 345.515,315.939 332.883,336.666L191.875,336.666C178.339,336.666 167.327,325.655 167.327,312.118L167.327,119.951C172.767,119.485 178.281,119.241 183.859,119.241Z" style="fill-rule:nonzero;"/>
    <path d="M309.927,200.247C298.265,189.386 277.185,187.92 254.851,207.392C232.517,187.919 211.436,189.384 199.776,200.247C188.036,211.183 185.376,232.699 203.007,252.661C219.959,271.855 248.543,298.301 249.751,299.417C252.592,302.043 257.107,302.042 259.949,299.417C261.157,298.301 289.741,271.855 306.694,252.661C324.327,232.699 321.666,211.184 309.927,200.247ZM295.432,242.712C283.167,256.598 263.948,275.024 254.852,283.605C245.756,275.025 226.543,256.605 214.273,242.712C203.003,229.952 203.603,217.223 210.022,211.245C212.648,208.799 216.29,207.369 220.683,207.369C228.433,207.369 238.521,211.819 249.491,222.988C252.394,225.944 257.31,225.944 260.213,222.988C277.403,205.49 292.423,204.483 299.683,211.245C306.1,217.224 306.701,229.952 295.432,242.712Z" style="fill-rule:nonzero;"/>
</svg>
